public/svg/color/bos.svg

<svg xmlns="http://www.w3.org/2000/svg" width="32" height="32" viewBox="0 0 32 32"><g fill="none" fill-rule="evenodd"><circle cx="16" cy="16" r="16" fill="#00A8D6"/><path fill="#FFF" d="M14.4318182,18.9508197 L14.4318182,17.0327869 L17.3863636,17.0327869 C19.3560606,17.0327869 20.3409091,16.5409836 20.3409091,15.557377 L20.3409091,10.3934426 C20.3409091,9.40983607 19.3560606,8.91803279 17.3863636,8.91803279 L12.6590909,8.91803279 L12.6590909,12.0163934 L10,12.0163934 L10,7 L17.0909091,7 C21.030303,7 23,8.08196721 23,10.2459016 L23,15.704918 C23,17.8688525 21.030303,18.9508197 17.0909091,18.9508197 L14.4318182,18.9508197 Z M20.3409091,20.1311475 L23,20.1311475 L23,21.7540984 C23,23.9180328 21.030303,25 17.0909091,25 L10,25 L10,13.4918033 L17.0909091,13.4918033 C17.506802,13.4918033 17.9007414,13.5038625 18.2727273,13.5279809 L18.2727273,15.4491999 C18.0035484,15.4229574 17.7080939,15.4098361 17.3863636,15.4098361 L12.6590909,15.4098361 L12.6590909,23.0819672 L14.4318182,23.0819672 L17.3863636,23.0819672 C19.3560606,23.0819672 20.3409091,22.5901639 20.3409091,21.6065574 L20.3409091,20.1311475 Z"/></g></svg>

<svg xmlns="http://www.w3.org/2000/svg" width="32" height="32" viewBox="0 0 32 32"><g fill="none" fill-rule="evenodd"><circle cx="16" cy="16" r="16" fill="#00A8D6"/><path fill="#FFF" d="M14.432 18.95v-1.917h2.954c1.97 0 2.955-.492 2.955-1.476v-5.164c0-.983-.985-1.475-2.955-1.475H12.66v3.098H10V7h7.09C21.03 7 23 8.082 23 10.246v5.459c0 2.164-1.97 3.246-5.91 3.246h-2.658zm5.909 1.181H23v1.623C23 23.918 21.03 25 17.09 25H10V13.492h7.09c.417 0 .81.012 1.183.036v1.921a9.18 9.18 0 00-.887-.04H12.66v7.673h4.727c1.97 0 2.955-.492 2.955-1.475V20.13z"/></g></svg>
